src/public/img/history/maxcdn.svg

<?xml version="1.0" encoding="UTF-8"?>
<svg xmlns="http://www.w3.org/2000/svg" xmlns:xlink="http://www.w3.org/1999/xlink" width="219px" height="50px" viewBox="0 0 218 50" version="1.1">
<g id="surface1">
<path style=" stroke:none;fill-rule:nonzero;fill:rgb(100%,40%,0%);fill-opacity:1;" d="M 209.058594 44.890625 C 208.46875 47.542969 205.730469 49.707031 203.089844 49.707031 L 4.414062 49.707031 C 1.675781 49.707031 0.0117188 47.542969 0.597656 44.890625 L 9.792969 4.8125 C 10.480469 2.160156 13.121094 0 15.859375 0 L 214.4375 0 C 217.175781 0 218.839844 2.160156 218.253906 4.8125 L 209.058594 44.890625 "/>
<path style=" stroke:none;fill-rule:nonzero;fill:rgb(100%,100%,100%);fill-opacity:1;" d="M 89.8125 18.566406 L 85.410156 39.488281 L 64.964844 39.488281 C 62.714844 39.488281 60.953125 38.605469 59.683594 36.738281 C 58.410156 34.871094 58.117188 32.710938 58.605469 30.355469 C 59.097656 27.898438 60.367188 25.835938 62.324219 23.96875 C 64.378906 22.101562 66.53125 21.21875 68.78125 21.21875 L 82.085938 21.21875 L 82.574219 18.957031 C 82.671875 18.371094 82.574219 17.78125 82.28125 17.386719 C 81.988281 16.894531 81.496094 16.699219 80.910156 16.699219 L 63.300781 16.699219 L 64.867188 9.136719 L 82.867188 9.136719 C 85.3125 9.136719 87.269531 10.019531 88.636719 11.984375 C 89.910156 13.753906 90.398438 16.011719 89.8125 18.566406 Z M 68.585938 27.308594 C 67.996094 27.308594 67.410156 27.503906 66.921875 27.996094 C 66.433594 28.488281 66.042969 28.980469 65.945312 29.566406 C 65.847656 29.863281 65.847656 30.15625 65.945312 30.453125 C 66.042969 30.746094 66.140625 30.941406 66.238281 31.140625 C 66.433594 31.335938 66.628906 31.53125 66.824219 31.628906 C 67.019531 31.730469 67.3125 31.828125 67.605469 31.828125 L 79.835938 31.828125 L 80.8125 27.308594 Z M 107.617188 24.261719 L 114.167969 39.488281 L 104.972656 39.488281 L 101.648438 30.648438 L 94.605469 39.488281 L 85.507812 39.488281 L 98.519531 24.261719 L 91.867188 9.136719 L 101.0625 9.136719 L 104.386719 17.976562 L 111.429688 9.136719 L 120.625 9.136719 Z M 107.617188 24.261719 "/>
<path style=" stroke:none;fill-rule:nonzero;fill:rgb(100%,100%,100%);fill-opacity:1;" d="M 140.679688 16.699219 L 127.082031 16.699219 C 126.398438 16.699219 125.710938 16.996094 125.125 17.484375 C 124.539062 17.976562 124.148438 18.664062 123.953125 19.351562 L 121.800781 29.175781 C 121.605469 29.960938 121.703125 30.550781 122.09375 31.042969 C 122.484375 31.53125 123.070312 31.828125 123.757812 31.828125 L 139.210938 31.828125 L 137.550781 39.390625 L 121.410156 39.390625 C 118.964844 39.390625 117.007812 38.507812 115.636719 36.640625 C 114.269531 34.773438 113.875 32.515625 114.367188 29.960938 L 116.8125 18.566406 C 117.398438 16.011719 118.667969 13.753906 120.820312 11.886719 C 122.972656 10.019531 125.320312 9.039062 127.765625 9.039062 L 142.148438 9.039062 Z M 172.375 24.164062 C 173.15625 20.335938 172.375 16.503906 170.027344 13.652344 C 167.777344 10.804688 164.15625 9.136719 160.242188 9.136719 L 146.453125 9.136719 L 139.996094 39.488281 L 156.429688 39.488281 C 163.667969 39 170.320312 33.300781 171.886719 26.128906 Z M 164.84375 22.496094 L 164.449219 24.460938 C 163.667969 28.292969 159.460938 31.730469 155.449219 31.730469 L 149.582031 31.730469 L 152.710938 16.796875 L 160.242188 16.796875 C 161.808594 16.796875 163.179688 17.386719 164.058594 18.371094 C 164.941406 19.449219 165.136719 20.921875 164.84375 22.496094 Z M 203.578125 18.566406 L 199.175781 39.488281 L 192.035156 39.488281 L 196.339844 19.351562 C 196.4375 18.957031 196.4375 18.664062 196.339844 18.371094 C 196.242188 18.074219 196.144531 17.78125 195.949219 17.484375 C 195.753906 17.289062 195.558594 17.09375 195.265625 16.894531 C 194.972656 16.796875 194.679688 16.699219 194.382812 16.699219 L 182.449219 16.699219 L 177.558594 39.488281 L 170.417969 39.488281 L 176.875 9.136719 L 196.632812 9.136719 C 199.078125 9.136719 201.035156 10.019531 202.40625 11.984375 C 203.675781 13.753906 204.070312 16.011719 203.578125 18.566406 Z M 56.648438 12.769531 C 54.792969 10.414062 51.855469 9.136719 48.726562 9.136719 L 18.5 9.136719 L 22.117188 16.894531 L 17.324219 39.488281 L 25.25 39.488281 L 30.042969 16.894531 L 36.792969 16.894531 L 32 39.488281 L 39.921875 39.488281 L 44.714844 16.894531 L 48.726562 16.894531 C 49.605469 16.894531 50.292969 17.191406 50.683594 17.683594 C 51.074219 18.171875 51.269531 18.957031 51.074219 19.746094 L 46.867188 39.488281 L 54.792969 39.488281 L 58.605469 21.414062 C 59.195312 18.269531 58.507812 15.128906 56.648438 12.769531 Z M 56.648438 12.769531 "/>
</g>
</svg>

<svg xmlns="http://www.w3.org/2000/svg" width="219" height="50" viewBox="0 0 218 50">
  <path d="M209.059 44.89c-.59 2.653-3.329 4.817-5.97 4.817H4.415c-2.738 0-4.402-2.164-3.816-4.816L9.793 4.813C10.48 2.16 13.121 0 15.859 0h198.578c2.739 0 4.403 2.16 3.817 4.813l-9.195 40.078" style="stroke:none;fill-rule:nonzero;fill:#f60;fill-opacity:1"/>
  <path d="M89.813 18.566 85.41 39.488H64.965c-2.25 0-4.012-.883-5.281-2.75-1.274-1.867-1.567-4.027-1.079-6.383.493-2.457 1.762-4.52 3.72-6.386 2.054-1.867 4.206-2.75 6.456-2.75h13.305l.488-2.262c.098-.586 0-1.176-.293-1.57-.293-.492-.785-.688-1.37-.688H63.3l1.566-7.562h18c2.445 0 4.403.883 5.77 2.847 1.273 1.77 1.761 4.028 1.175 6.582ZM68.585 27.31c-.59 0-1.176.195-1.664.687-.488.492-.879.984-.977 1.57-.097.297-.097.59 0 .887.098.293.196.488.293.688.196.195.39.39.586.488.196.101.489.2.781.2h12.23l.978-4.52Zm39.031-3.047 6.551 15.226h-9.195l-3.325-8.84-7.043 8.84h-9.097L98.52 24.262 91.867 9.137h9.195l3.325 8.84 7.043-8.84h9.195Zm0 0" style="stroke:none;fill-rule:nonzero;fill:#fff;fill-opacity:1"/>
  <path d="M140.68 16.7h-13.598c-.684 0-1.371.296-1.957.784-.586.493-.977 1.18-1.172 1.868l-2.152 9.824c-.196.785-.098 1.375.293 1.867.39.488.976.785 1.664.785h15.453l-1.66 7.563h-16.14c-2.446 0-4.403-.883-5.774-2.75-1.367-1.868-1.762-4.125-1.27-6.68l2.445-11.395c.586-2.554 1.856-4.812 4.008-6.68 2.153-1.866 4.5-2.847 6.946-2.847h14.382Zm31.695 7.464c.781-3.828 0-7.66-2.348-10.512-2.25-2.847-5.87-4.515-9.785-4.515h-13.789l-6.457 30.351h16.434c7.238-.488 13.89-6.187 15.457-13.36Zm-7.531-1.668-.395 1.965c-.781 3.832-4.988 7.27-9 7.27h-5.867l3.129-14.934h7.531c1.567 0 2.938.59 3.817 1.574.882 1.078 1.078 2.55.785 4.125Zm38.734-3.93-4.402 20.922h-7.14l4.304-20.136c.097-.395.097-.688 0-.98-.098-.298-.195-.59-.39-.888a4.46 4.46 0 0 0-.684-.59c-.293-.097-.586-.195-.883-.195h-11.934l-4.89 22.79h-7.141l6.457-30.352h19.758c2.445 0 4.402.883 5.773 2.847 1.27 1.77 1.664 4.028 1.172 6.582ZM56.648 12.77c-1.855-2.356-4.793-3.633-7.921-3.633H18.5l3.617 7.758-4.793 22.593h7.926l4.793-22.593h6.75L32 39.488h7.922l4.793-22.593h4.012c.878 0 1.566.296 1.957.789.39.488.586 1.273.39 2.062l-4.207 19.742h7.926l3.812-18.074c.59-3.144-.097-6.285-1.957-8.644Zm0 0" style="stroke:none;fill-rule:nonzero;fill:#fff;fill-opacity:1"/>
</svg>
